editor/icons/EditorPositionUnselected.svg

<svg height="16" viewBox="0 0 16 16" width="16" xmlns="http://www.w3.org/2000/svg"><path d="m6 0v4.4199a4.2662 4.0576 0 0 0 -1.709 1.5801h-4.291v4h4.2949a4.2662 4.0576 0 0 0 1.7051 1.582v4.418h4v-4.4199a4.2662 4.0576 0 0 0 1.709-1.5801h4.291v-4h-4.2949a4.2662 4.0576 0 0 0 -1.7051-1.582v-4.418z" fill-opacity=".41077"/><path d="m7 1v3.0605a4.2662 4.0576 0 0 1 1-.11914 4.2662 4.0576 0 0 1 1 .11914v-3.0605zm1 4.0801a2.9201 2.9201 0 0 0 -2.9199 2.9199 2.9201 2.9201 0 0 0 2.9199 2.9199 2.9201 2.9201 0 0 0 2.9199-2.9199 2.9201 2.9201 0 0 0 -2.9199-2.9199zm-7 1.9199v2h2.8691a4.2662 4.0576 0 0 1 -.13477-1 4.2662 4.0576 0 0 1 .13672-1h-2.8711zm11.131 0a4.2662 4.0576 0 0 1 .13477 1 4.2662 4.0576 0 0 1 -.13672 1h2.8711v-2h-2.8691zm-5.1309 4.9395v3.0605h2v-3.0605a4.2662 4.0576 0 0 1 -1 .11914 4.2662 4.0576 0 0 1 -1-.11914z" fill="#d6d6d6"/></svg>

<svg height="16" viewBox="0 0 16 16" width="16" xmlns="http://www.w3.org/2000/svg"><path d="M6 0v4.42A4.266 4.058 0 0 0 4.291 6H0v4h4.295A4.266 4.058 0 0 0 6 11.582V16h4v-4.42A4.266 4.058 0 0 0 11.709 10H16V6h-4.295A4.266 4.058 0 0 0 10 4.418V0z" fill-opacity=".411"/><path d="M7 1v3.06a4.266 4.058 0 0 1 2 0V1zm1 4.08a2.92 2.92 0 0 0 0 5.84 2.92 2.92 0 0 0 0-5.84zM1 7v2h2.87a4.266 4.058 0 0 1 .001-2H1zm11.131 0a4.266 4.058 0 0 1-.002 2H15V7h-2.869zm-5.13 4.94V15h2v-3.06a4.266 4.058 0 0 1-2 0z" fill="#d6d6d6"/></svg>
